X:1
T:Feux d'Artifice
T:Feux d'Artifice
T:Préludes, Livre 2
T:Claude Debussy
C:Claude Debussy
%%score { ( 1 4 ) | ( 2 6 ) | ( 3 5 ) }
L:1/8
Q:1/4=80
M:4/8
K:F
V:1 treble nm="Piano" snm="Pno."
V:4 treble 
V:2 treble 
V:6 treble 
V:3 treble 
V:5 treble 
V:1
"^Modérément animé" z4 | z4 | .[dd']/ z/ z z2 | .[_a_a']/ z/ z z2 |!8va(! .[d'd'']/!8va)! z/ z z2 | %5
 .[_a_a']/ z/ z z2 |"^marqué" .[CD] z z2 |!pp!!8va(! .[d'c''d'']!8va)! z z2 |"^marqué" .[CD] z z2 | %9
!pp!!8va(! .[d'c''d'']!8va)! z z2 | z .[dd']/ z/ z!8va(! .[_a_a']/ z/ | %11
 z .[d'd'']/ z/ z .[_a_a']/!8va)! z/ | z .[dd']/ z/ z!8va(! .[_a_a']/ z/ | %13
 z .[d'd'']/ z/ z .[_a_a']/!8va)! z/ |"_cresc. molto" x2 x/ (3b/4_a/4_g/4 x/ (3b/4a/4g/4 | %15
!8va(! x/ (3b'/4_a'/4_g'/4 x/ (3b'/4a'/4g'/4 x/ (3b'/4a'/4g'/4 x/ (3b'/4a'/4g'/4 | %16
!f!"_m.g." (5:4:5b'/4_a'/4_g'/4_e'/4!-(!_d'/4!8va)! x x2 | x4 | x4 | x4 | x4 | x4 | x4 | %23
 x2!8va(! (6:4:6x/4 [c''_d'']/4x/4[c''d'']/4x/4[d''_e'']/4 (6:4:6x/4 [c''d'']/4x/4[c''d'']/4x/4[d''e'']/4 || %24
!f! (14:8:14(e''/4d''/4c''/4b'/4g'/4!8va)![I:staff +1] e'/4d'/4c'/4b/4g/4[I:staff -1] e/4d/4c/4B/4) (14:8:14(G/4B/4c/4d/4e/4[I:staff +1] g/4b/4c'/4d'/4e'/4!8va(![I:staff -1] g'/4b'/4c''/4d''/4) | %25
 (14:8:14(e''/4d''/4c''/4b'/4g'/4!8va)![I:staff +1] e'/4d'/4c'/4b/4g/4[I:staff -1] e/4d/4c/4B/4) (14:8:14(G/4B/4c/4d/4e/4[I:staff +1] g/4b/4c'/4d'/4e'/4!8va(![I:staff -1] g'/4b'/4c''/4d''/4) | %26
 (14:8:14(e''/4d''/4c''/4b'/4g'/4!8va)![I:staff +1] e'/4d'/4c'/4b/4g/4[I:staff -1] e/4d/4c/4B/4)[I:staff +1](14:8:14(x/4[I:staff -1]B/4c/4d/4e/4[I:staff +1] g/4b/4c'/4d'/4e'/4!8va(![I:staff -1] g'/4b'/4c''/4d''/4) | %27
 (14:8:14(e''/4d''/4c''/4b'/4g'/4!8va)![I:staff +1] e'/4d'/4c'/4b/4g/4[I:staff -1] e/4d/4c/4B/4) (14:8:14(G/4B/4c/4d/4e/4[I:staff +1] g/4b/4c'/4d'/4e'/4!8va(![I:staff -1] g'/4b'/4c''/4d''/4) | %28
 (14:8:14(e''/4d''/4c''/4b'/4g'/4!8va)![I:staff +1] e'/4d'/4c'/4b/4g/4[I:staff -1] e/4d/4c/4B/4)[I:staff +1](15:8:15x/4[I:staff -1]B/4c/4d/4e/4[I:staff +1] g/4b/4c'/4d'/4e'/4!8va(![I:staff -1] g'/4b'/4c''/4d''/4!8va)! z/4 | %29
[M:2/8] (^E/8=B/8^c/8^d/8^e/8=b/8^c'/8^d'/8 (10:8:10^f'/8e'/8=d'/8=c'/8^f/8=e/8=d/8=c/8^F/8) z/8 | %30
[M:4/8]!8va(! (14:8:14(e''/4d''/4c''/4b'/4g'/4!8va)![I:staff +1] e'/4d'/4c'/4b/4g/4[I:staff -1] e/4d/4c/4B/4)[I:staff +1](14:8:14(x/4[I:staff -1]B/4c/4d/4e/4[I:staff +1] g/4b/4c'/4d'/4e'/4!8va(![I:staff -1] g'/4b'/4c''/4d''/4) | %31
[M:3/8] x/ x/!8va)! x2 |[M:4/8] x4 | x4 |!f!!<(! (!tenuto![Ff]/<[_c_c']/-)!<)! [cc']3 | %35
!f!!<(! (!tenuto![Ff]/4[_d_d']/4[_c_c']/-)!<)! [cc']3 | %36
 (3!tenuto![Ff]!tenuto![_d_d']!tenuto![_c_c'] (3!tenuto![_e_e']!tenuto![dd']!tenuto![Gg] | %37
[M:5/8]!f!!<(! (!tenuto![Ff]/<[_c_c']/-)!<)![cc']- (4:3:8x3[I:staff +1] (7:4:7(g/4_d'/4_e'/4!8va(![I:staff -1] f'/4_c''/4_d''/4_e''/4) | %38
[M:4/8] (9:8:9(f''/8_e''/8_d''/8_c''/8f'/8!8va)!!8va(![I:staff +1] b'/8_a'/8_g'/8_e'/8)!8va)![I:staff -1] (9:8:9(f'/8e'/8_d'/8_c'/8f/8[I:staff +1] b/8_a/8_g/8_e/8)[I:staff -1] x2 | %39
 x4 ||[K:Db] x4 |!p!{.B.B} !tenuto!e3/2 z/ z!8va(!{b'b'} .e''/4!8va)! .b/4.e'/4.c/4 | %42
 (3(.B/4.B/4.f/4)e/-e z!8va(!{b'b'} .e''/4!8va)! .b/4.e'/4.c/4 | %43
[M:2/8] z/4 .B/4.g/4._f/4 .=g/4.=f/4.=B/ | %44
[M:4/8]!mf!!<(! ([CGAc]/<[Aa]/)!<)!!<(! ([cgac']/<[aa']/)!<)!!f!!8va(! (3([=b^d'^f'=b']/.[=ad'f'=a']/)!8va)![I:staff +1].[^c'd']/[I:staff -1] (3([=B^d^fb]/.[=Adfa]/)[I:staff +1].[^cd]/ | %45
!mf!!<(![I:staff -1] ([CGAc]/<[Aa]/)!<)!!<(! ([cgac']/<[aa']/)!<)!!f!!8va(! (3([=b^d'^f'=b']/.[=ad'f'=a']/)!8va)![I:staff +1].[^c'd']/[I:staff -1] (3([=B^d^fb]/.[=Adfa]/)[I:staff +1].[^cd]/ || %46
[K:C][Q:1/4=80]"^Scherzando"!p![I:staff -1] x2!<(! x2!<)! | %47
!8va(! (3([b^d'^f'b']/.[ad'f'a']/)!8va)![I:staff +1]!tenuto![^c'd']/[I:staff -1] x x2 | %48
!p! x2!<(! x2!<)! |!pp! x4 |"^poco cresc." x4 | %51
"_molto cresc." (3([Gc_eg]/.[^Fce^f]/) z/ (3([GBdg]/.[=FBd=f]/) z/ (3([Gceg]/.[^Fce^f]/) z/ (3([GBdg]/.[=FBd=f]/) z/ | %52
!f!!<(! (3x3/2"_strident"!8va(! x/!<)! z!8va)! (3z/ ([CD]/[cd]/)[I:staff +1] (3([^F^G]/[I:staff -1][de]/[d'e']/) | %53
!f!!<(! (3x/ x/"_strident"!8va(! x/!<)! z!8va)! (3z/ ([CD]/[cd]/)[I:staff +1] (3([^F^G]/[I:staff -1][de]/[d'e']/) | %54
[Q:1/4=80]"^Retenu"[I:staff +1](3(x/[Q:1/4=79]"^.2"[I:staff -1][CD]/[Q:1/4=78]"^.3"[cd]/)[Q:1/4=77]"^.5"[I:staff +1](3(x/[Q:1/4=76]"^.7"[I:staff -1][de]/[Q:1/4=75]"^.8"[d'e']/)[Q:1/4=75][I:staff +1](3(x/[Q:1/4=74]"^.2"[I:staff -1][CD]/[Q:1/4=73]"^.3"[cd]/)[Q:1/4=72]"^.5"[I:staff +1](3(x/[Q:1/4=71]"^.7"[I:staff -1][de]/[Q:1/4=70]"^.8"[d'e']/) | %55
[Q:1/4=70][I:staff +1](3(x/[Q:1/4=69]"^.2"[I:staff -1][CD]/[Q:1/4=68]"^.3"[cd]/)[Q:1/4=67]"^.5"[I:staff +1](3(x/[Q:1/4=66]"^.7"[I:staff -1][de]/[Q:1/4=65]"^.8"[d'e']/)[Q:1/4=65][I:staff +1](3(x/[Q:1/4=64]"^.2"[I:staff -1][CD]/[Q:1/4=63]"^.3"[cd]/)[Q:1/4=62]"^.5"[I:staff +1](3(x/[Q:1/4=61]"^.7"[I:staff -1][de]/[Q:1/4=60]"^.8"[d'e']/)"^<sym>caesura</sym>" || %56
[K:A][Q:1/4=60]"^Mouvt(plus à l'aise)"!pp! (.c' .c) (.^B .^b) | (.c' .c) (.d .d') | %58
 (.f' .f) (.e .e') | (.g' .g) (.f .f') || %60
[K:C][Q:1/4=40]"^Rubato"!pp!!8va(! !tenuto![c'e'g'c'']2!8va)![I:staff +1] (!tenuto![^F,^A,^C^F]/>[I:staff -1].[E^GBe]/"_m.g."!tenuto![_B,D=F_B]) | %61
!pp!!8va(! !tenuto![c'e'g'c'']2!8va)![I:staff +1] (!tenuto![^F,^A,^C^F]/>[I:staff -1].[E^GBe]/) x/ .[=G=Bdg]/ | %62
!pp!!8va(! !tenuto![_e'_g'_b'_e'']2!8va)![I:staff +1] ((!tenuto![A,^CEA]/>[I:staff -1].[=G=B=dg]/)[I:staff +1]!tenuto![C^E^G^c]) | %63
!pp!!8va(![I:staff -1] !tenuto![_e'_g'_b'_e'']2!8va)![I:staff +1] ((!tenuto![A,^CEA]/>[I:staff -1].[=G=B=dg]/)[I:staff +1] !tenuto!.[C^E^G^c]/)!8va(![I:staff -1].[^c'^c'']/ || %64
[K:F#]"^Doux et harmonieux (Molto Rubato)"!pp! (27:8:27(d''/8c''/8b'/8g'/8c'/8!8va)![I:staff +1] b/8d/8c/8B/8)!>(![I:staff -1] (d'/8c'/8b/8g/8c/8[I:staff +1] B/8D/8C/8B,/8)[I:staff -1] (d/8c/8B/8G/8C/8[I:staff +1] B,/8D,/8C,/8B,,/8)!>)![I:staff -1] x !tenuto![Gg]2 | %65
!8va(! (27:8:27(d''/8c''/8b'/8g'/8c'/8!8va)![I:staff +1] b/8d/8c/8B/8)!>(![I:staff -1] (d'/8c'/8b/8g/8c/8[I:staff +1] B/8D/8C/8B,/8)[I:staff -1] (d/8c/8B/8G/8C/8[I:staff +1] B,/8D,/8C,/8B,,/8)!>)![I:staff -1] x x2 | %66
"^Incisif et rapide"[Q:1/4=80] (6:8:5x/ !>![Aa]/4x/4!>![Bb]/4 x/4 x2 | %67
[K:C]"^Quasi cadenza" x3/2!8va(! x/!>(! !fermata!f''2!>)! | %68
!pp! (f''/4c''/4=a'/4f'/4)(f''/4c''/4a'/4f'/4) (f''/4c''/4a'/4f'/4)(f''/4c''/4a'/4f'/4)!p!!<(! (f''/4c''/4a'/4f'/4)(f''/4c''/4a'/4f'/4) (f''/4c''/4a'/4f'/4)(f''/4c''/4a'/4f'/4)!8va)!!<)! | %69
"_cresc. molto" (f'/4c'/4=a/4f/4)(f'/4c'/4a/4f/4) (f/4c/4A/4F/4)(f/4c/4A/4F/4)!f! (14:12:14(f/4c/4A/4F/4A/4c/4f/4f/4a/4c'/4f'/4!8va(!f'/4a'/4c''/4 f''/) z/ || %70
[K:F#][Q:1/4=40]"^Tempo (Rubato)"!pp! (27:8:27(d''/8c''/8b'/8g'/8c'/8!8va)![I:staff +1] b/8d/8c/8B/8)!>(![I:staff -1] (d'/8c'/8b/8g/8c/8[I:staff +1] B/8D/8C/8B,/8)[I:staff -1] (d/8c/8B/8G/8C/8[I:staff +1] B,/8D,/8C,/8B,,/8)!>)![I:staff -1] x !tenuto![Gg]2 | %71
[K:F#]!8va(! (27:8:27(d''/8c''/8b'/8g'/8c'/8!8va)![I:staff +1] b/8d/8c/8B/8)!>(![I:staff -1] (d'/8c'/8b/8g/8c/8[I:staff +1] B/8D/8C/8B,/8)[I:staff -1] (d/8c/8B/8G/8C/8[I:staff +1] B,/8D,/8C,/8B,,/8)!>)![I:staff -1] x x2 | %72
!f!"^Incisif" (6:4:5x/ !>![Aa]/4x/4!>![Bb]/4 x/4 x!f! (6:4:5x/ !>![=c=c']/4x/4!>![^c^c']/4 x/4 x || %73
[K:C]!pp![Q:1/4=80]"^Mouvt" (6:4:6z/4 (F/4_d/4_c/4_e/4=d/4).^F (6:4:6z/4 (G/4e/4_d/4=f/4=e/4).^G | %74
 z/4!<(! ([cd]/4[c'd']/4.[cd]/4) z/4!8va(! ([c'd']/4[c''d'']/4.[c'd']/4)!<)! z/4!>(! ([c'd']/4[c''d'']/4.[c'd']/4)!8va)! z/4 ([cd]/4[c'd']/4.[cd]/4)!>)! | %75
!pp! (6:4:6z/4 (F/4_d/4_c/4_e/4=d/4).^F (6:4:6z/4 (G/4e/4_d/4=f/4=e/4).^G | %76
!p! z/4 (B/4g/4f/4 _a/4_g/4_B/4_A/4)!<(! (_G/4_B,/4G/4A/4B/4g/4a/4)!<)! z/4 | %77
!p! z/4 (=B/4=g/4f/4 _a/4_g/4_B/4_A/4)!<(! (_G/4_B,/4G/4A/4B/4g/4a/4B/4)!<)! | %78
!p! (_A/4_G/4_B,/4G/4A/4G/4B,/4_G,/4) x2 | x4 | x4 || %81
[K:F][Q:1/4=60]"^Mouvt élargi"!<(! x2!<)!"_éclatant"!f! (c'/<[gg']/-)[gg'] | %82
!<(! x2!<)!!f! (c'/4[aa']/4[gg']3/2) | %83
 (6:4:6x/4 !>![cc']/4x/4!>![aa']/4x/4!>![gg']/4 (6:4:6x/4 !>![bb']/4x/4!>![_a_a']/4x/4!>![_d_d']/4 [_c'_c'']2[K:bass] | %84
[K:treble]!<(! x2!<)!"_éclatant"!f! (c'/<[gg']/-)[gg'] |!<(! x2!<)!!f! (c'/4[aa']/4[gg']3/2) | %86
[M:2/8][Q:1/4=30][I:staff +1] (6:2:6C/4[I:staff -1][cc']/4[I:staff +1]A/4[I:staff -1][aa']/4[I:staff +1]G/4[I:staff -1][gg']/4 x/[I:staff +1] (6:2:6D/4[I:staff -1][dd']/4[I:staff +1]=B/4[I:staff -1][=b=b']/4[I:staff +1]A/4[I:staff -1][aa']/4 (6:4:3x/8!8va(! x/ x/8 | %87
[M:6/8][Q:1/4=80]!ff!!<(! (!>![c'_e'g'c''][be'g'b'])!8va)!!<)! [_egbe']!ff!!<(!!8va(! (!>![^c'=e'^g'^c''][=be'g'=b'])!<)!!8va)! [=e^gbe'] | %88
!ff!!<(!!8va(! (!>![d'f'a'd''][c'f'a'c''])!<)!!8va)! [fac'f']!ff!!<(!!8va(! (!>![^d'^f'^a'^d''][^c'f'a'^c''])!<)!!8va)! [^f^ac'f'] || %89
[K:C][M:2/8][Q:1/8=80]!ff! z2!8va(!!>(! (5:4:5_a''/8_g''/8_e''/8_d''/8_b'/8!8va)!x/x/>[K:bass]_G,,/!>)! | %90
[M:4/8][Q:1/4=40]"^Plus lent" x4 | x4[Q:1/4=35]"^Très retenu" || %92
[K:treble][Q:1/4=30]"^Encore plus lent"!ppp! x4 | z2 z z3/4"^de très loin" (!tenuto!g/4 | %94
 !tenuto!g2- g/!tenuto!g/e/>c/ | d4-) | d z z!<(! G | (!tenuto!c2 !tenuto!d2!<)! | %98
!pp! !tenuto!e2)!8va(! .[_d'_d'']/ z/ z | z2 .[_d'_d'']/!8va)! z/ z | x4 |] %101
V:2
!pp!"^légér, égal et lointain" x/ (3B/4_A/4_G/4 x/ (3B/4A/4G/4 x/ (3B/4A/4G/4 x/ (3B/4A/4G/4 | %1
 x/ (3B/4_A/4_G/4 x/ (3B/4A/4G/4 x/ (3B/4A/4G/4 x/ (3B/4A/4G/4 | %2
 x/ (3B/4_A/4_G/4 x/ (3B/4A/4G/4 x/ (3B/4A/4G/4 x/ (3B/4A/4G/4 | %3
 x/ (3B/4_A/4_G/4 x/ (3B/4A/4G/4 x/ (3B/4A/4G/4 x/ (3B/4A/4G/4 | %4
 x/ (3B/4_A/4_G/4 x/ (3B/4A/4G/4 x/ (3B/4A/4G/4 x/ (3B/4A/4G/4 | %5
 x/ (3B/4_A/4_G/4 x/ (3B/4A/4G/4 x/ (3B/4A/4G/4 x/ (3B/4A/4G/4 | %6
 x/ (3B/4_A/4_G/4 x/ (3B/4A/4G/4 x/ (3B/4A/4G/4 x/ (3B/4A/4G/4 | %7
 x/ (3B/4_A/4_G/4 x/ (3B/4A/4G/4 x/ (3B/4A/4G/4 x/ (3B/4A/4G/4 | %8
 x/ (3B/4_A/4_G/4 x/ (3B/4A/4G/4 x/ (3B/4A/4G/4 x/ (3B/4A/4G/4 | %9
 x/ (3B/4_A/4_G/4 x/ (3B/4A/4G/4 x/ (3B/4A/4G/4 x/ (3B/4A/4G/4 | %10
!pp! x/ (3B/4_A/4_G/4 x/ (3B/4A/4G/4 x/ (3B/4A/4G/4 x/ (3B/4A/4G/4 | %11
"^en se rapprochant peu à peu" x/ (3B/4_A/4_G/4 x/ (3B/4A/4G/4 x/ (3B/4A/4G/4 x/ (3B/4A/4G/4 | %12
 x/ (3B/4_A/4_G/4 x/ (3B/4A/4G/4 x/ (3B/4A/4G/4 x/ (3B/4A/4G/4 | %13
 x/ (3B/4_A/4_G/4 x/ (3B/4A/4G/4 x/ (3B/4A/4G/4 x/ (3B/4A/4G/4 | %14
 x/ (3B/4_A/4_G/4 x/ (3B/4A/4G/4 (3f/4g/4a/4 x/ (3f/4g/4a/4 x/ | %15
!8va(! (3f'/4g'/4a'/4 x/ (3f'/4g'/4a'/4 x/ (3f'/4g'/4a'/4 x/ (3f'/4g'/4a'/4!8va)! x/ | x4 | %17
 z/!p! .[_C_D]/ z z2 | z/!p! .[_C_D]/ z z2 | %19
!pp! (6:4:6x/4 [C_D]/4x/4[CD]/4x/4[CD]/4 (6:4:6x/4 [D_E]/4x/4[DE]/4x/4[DE]/4 (6:4:6x/4 [CD]/4x/4[CD]/4x/4[CD]/4 (6:4:6x/4 [DE]/4x/4[DE]/4x/4[DE]/4 | %20
 (6:4:6x/4 [C_D]/4x/4[CD]/4x/4[D_E]/4 (6:4:6x/4 [CD]/4x/4[CD]/4x/4[DE]/4 (6:4:6x/4 [CD]/4x/4[CD]/4x/4[DE]/4 (6:4:6x/4 [CD]/4x/4[CD]/4x/4[DE]/4 | %21
 (6:4:6x/4 [c_d]/4x/4[cd]/4x/4[cd]/4 (6:4:6x/4 [d_e]/4x/4[de]/4x/4[de]/4 (6:4:6x/4 [cd]/4x/4[cd]/4x/4[cd]/4 (6:4:6x/4 [de]/4x/4[de]/4x/4[de]/4 | %22
"^cresc." (6:4:6x/4 [c_d]/4x/4[cd]/4x/4[d_e]/4 (6:4:6x/4 [cd]/4x/4[cd]/4x/4[de]/4 (6:4:6x/4 [cd]/4x/4[cd]/4x/4[de]/4 (6:4:6x/4 [cd]/4x/4[cd]/4x/4[de]/4 | %23
 (6:4:6x/4 [c'_d']/4x/4[c'd']/4x/4[d'_e']/4 (6:4:6x/4 [c'd']/4x/4[c'd']/4x/4[d'e']/4!8va(! (6:4:6=b'/4x/4b'/4x/4c''/4 x/4 (6:4:6b'/4x/4b'/4x/4c''/4 x/4!8va)! || %24
 x4 | x4 | x4 | x4 | x4 |[M:2/8] x2 |[M:4/8] x4 | %31
[M:3/8]!>(![I:staff -1] (10:8:10(e'/8d'/8c'/8b/8g/8[I:staff +1] e'/8d'/8c'/8b/8g/8)!>)!!>(![I:staff -1] (9:8:9(e'/8d'/8c'/8b/8g/8[I:staff +1] e/8d/8c/8B/8)!>)![I:staff -1] (10:8:10(e/8d/8c/8B/8G/8[I:staff +1] E/8D/8C/8[I:staff +1] B,/8G,/8) | %32
[M:4/8]!p![I:staff -2] (10:8:10(e/8d/8c/8B/8G/8[I:staff +1] E/8D/8C/8[I:staff +1] B,/8G,/8-) (9:8:9(G,/8B,/8[I:staff -1] ^C/8D/8E/8!<(![I:staff -1] G/8B/8^c/8d/8)!<)!!p! (10:8:10(e/8d/8=c/8B/8G/8[I:staff +1] E/8D/8=C/8[I:staff +1] B,/8G,/8-) (9:8:9(G,/8B,/8[I:staff -1] ^C/8D/8E/8!<(![I:staff -1] G/8B/8^c/8d/8)!<)! | %33
!p! (10:8:10(e/8d/8c/8B/8G/8[I:staff +1] E/8D/8C/8[I:staff +1] B,/8G,/8-) (9:8:9(G,/8B,/8[I:staff -1] ^C/8D/8E/8!<(![I:staff -1] G/8B/8^c/8d/8)!<)!!p! (10:8:10(e/8d/8=c/8B/8G/8[I:staff +1] E/8D/8=C/8[I:staff +1] B,/8G,/8-) (9:8:9(G,/8B,/8[I:staff -1] C/8D/8E/8!<(![I:staff -1] G/8B/8c/8d/8)!<)! | %34
[I:staff +1] x4 | x4 | x4 | %37
[M:5/8] x2[I:staff +1] (32:12:25(1:1:8(G,,/4_D,/4_E,/4[I:staff -1]F,/4_C/4_D/4_E/4F/4)[I:staff +1] (1:1:8(G,/4D/4E/4[I:staff -1]F/4_c/4_d/4_e/4f/4)!<(! (1:1:8(G/4d/4e/4[I:staff -1] f/4_c'/4_d'/4_e'/4f'/4)[I:staff +1] x!<)! | %38
[M:4/8] x2[I:staff -1] (9:8:9(f/8_e/8_d/8_c/8F/8[I:staff +1] B/8_A/8_G/8_E/8)[I:staff -1] (9:8:9(F/8E/8_D/8_C/8F,/8[I:staff +1][K:bass] B,/8_A,/8_G,/8_E,/8) | %39
"_molto dim."[I:staff -1] (9:8:9(F/8_E/8_D/8_C/8F,/8[I:staff +1] B,/8_A,/8_G,/8_E,/8-) (7:8:7(E,/8G,/8A,/8B,/8[I:staff -1] C/8D/8E/8) (9:8:9(F/8E/8D/8C/8F,/8[I:staff +1] B,/8A,/8G,/8E,/8-) (7:8:7(E,/8G,/8A,/8B,/8[I:staff -1] C/8D/8E/8) || %40
[K:Db]!p!!>(![I:staff +1] (7:4:7(F/4E/4D/4C/4B,/4A,/4G,/4)!>)![I:staff +1] (7:4:7(A,,/4[I:staff -1]G,/4A,/4B,/4C/4D/4E/4)!p!!>(! (7:4:7(F/4E/4D/4C/4B,/4A,/4G,/4)!>)![I:staff +1] (7:4:7(A,,/4[I:staff -1]G,/4A,/4B,/4C/4D/4E/4) | %41
!p!!>(! (7:4:7(F/4E/4D/4C/4B,/4A,/4G,/4)!>)![I:staff +1] (7:4:7(A,,/4[I:staff -1]G,/4A,/4B,/4C/4D/4E/4)!p!!>(! (7:4:7(F/4E/4D/4C/4B,/4A,/4G,/4)!>)![I:staff +1] (7:4:7(A,,/4[I:staff -1]G,/4A,/4B,/4C/4D/4E/4) | %42
!p!!>(! (7:4:7(F/4E/4D/4C/4B,/4A,/4G,/4)!>)![I:staff +1] (7:4:7(A,,/4[I:staff -1]G,/4A,/4B,/4C/4D/4E/4)!p!!>(! (7:4:7(F/4E/4D/4C/4B,/4A,/4G,/4)!>)![I:staff +1] (7:4:7(A,,/4[I:staff -1]G,/4A,/4B,/4C/4D/4E/4) | %43
[M:2/8][I:staff +1] (8:4:8(G,,/4D,/4_F,/4G,/4A,/4B,/4[I:staff -1][K:treble] D/4_F/4) (6:4:6(=F/4=D/4[I:staff +1] A,/4=F,/4=D,/4A,,/4) | %44
[M:4/8] (12:16:12(=D,,/8A,,/8=D,/8G,/8A,/8C/8[I:staff -1] =D/8G/8A/8c/8=d/8) z/8 x2 | %45
[I:staff +1] (12:16:12(=D,,/8A,,/8=D,/8G,/8A,/8C/8[I:staff -1] =D/8G/8A/8c/8=d/8) z/8 x2 || %46
[K:C] x4 | x!>(![I:staff -1] (3([B^d^fb]/.[Adfa]/)[I:staff +1]!tenuto![^c^d]/!>)!!p! x2 | %48
[I:staff -1] (3([G,C_EG]/.[^F,CE^F]/)[I:staff +1]!tenuto![A,B,]/[I:staff -1] (3([A,^C=EA]/.[G,CEG]/)[I:staff +1]!tenuto![_B,C]/[I:staff -1] (3([G,=C_EG]/.[F,CEF]/)[I:staff +1]!tenuto![A,=B,]/[I:staff -1] (3([DFAd]/.[CFAc]/)[I:staff +1]!tenuto![_E=F]/ | %49
[I:staff -1] (3([G,C_EG]/.[^F,CE^F]/)[I:staff +1]!tenuto![A,B,]/[I:staff -1] (3([A,^C=EA]/.[G,CEG]/)[I:staff +1]!tenuto![_B,C]/[I:staff -1] (3([G,=C_EG]/.[F,CEF]/)[I:staff +1]!tenuto![A,=B,]/[I:staff -1] (3([DFAd]/.[CFAc]/)[I:staff +1]!tenuto![_E=F]/ | %50
[I:staff -1] (3([Gc_eg]/.[^Fce^f]/)[I:staff +1]!tenuto![AB]/[I:staff -1] (3([GBdg]/.[=FBd=f]/)[I:staff +1]!tenuto![_A_B]/[I:staff -1] (3([Gceg]/.[^Fce^f]/)[I:staff +1]!tenuto![=A=B]/[I:staff -1] (3([GBdg]/.[=FBd=f]/)[I:staff +1]!tenuto![_A_B]/ | %51
 (3:2:2.[AB]3/4.[ab]3/4 (3:2:2.[_A_B]3/4.[_a_b]3/4 (3:2:2.[=A=B]3/4.[=a=b]3/4 (3:2:2.[_A_B]3/4.[_a_b]3/4- | %52
 (3[ab]3/2!8va(![I:staff -1][_a'_b']/- x!8va)![I:staff +1] x2 | %53
 (3z/ [_a_b]/!8va(![I:staff -1][_a'_b']/- x!8va)![I:staff +1] x2 | x4 | x4 || %56
[K:A] x/ z/ x/4[K:bass] x/4 z/ x/ z/ x/4[K:treble] x/4 z/ | %57
 x/ z/ x/4[K:bass] x/4 z/ x/ z/ x/[K:treble] z/ | %58
 x/ z/ x/4[K:bass] x/4 z/!<(! x/ z/ x/4[K:treble] x/4 z/!<)! | %59
!pp! x/ z/ x/4[K:bass] x/4 z/!<(! x/ z/ x/4[K:treble] x/4 z/!<)! || %60
[K:C] z[K:bass]"^m.d.""^glissando" (15:8:15C,/8D,/8E,/8F,/8G,/8A,/8B,/8[I:staff -1] C/8D/8E/8F/8G/8A/8B/8c/8!<(![I:staff +1] x!<)!!p! x | %61
 z"^m.d.""^glissando" (15:8:15C,/8D,/8E,/8F,/8G,/8A,/8B,/8[I:staff -1] C/8D/8E/8F/8G/8A/8B/8c/8!p!!<(![I:staff +1] x (.[_B,D=F_B]/.[G,=B,D]/)!<)! | %62
 z"^m.d.""^glissando" (11:8:11_E,/8_G,/8_A,/8_B,/8_D/8[I:staff -1] _E/8_G/8_A/8_B/8_d/8_e/8[I:staff +1][K:treble]!<(! x!<)!!p! x | %63
 z[K:bass]"^m.d.""^glissando" (11:8:11_E,/8_G,/8_A,/8_B,/8_D/8[I:staff -1] _E/8_G/8_A/8_B/8_d/8_e/8[I:staff +1][K:treble] x x || %64
[K:F#] (27:8:7z x x/ x/4 x/8[K:bass] x/8 x3/8 z3/4!<(! C/4!<)! x2 | %65
[K:treble] (27:8:7z x x/ x/4 x/8[K:bass] x/8 x3/8 z!<(! (C/4[I:staff -1][Aa]/4[I:staff +1]!tenuto!G3/2)!<)! | %66
[K:treble]!f!!<(! (6:8:6z/4 (!>!C/4x/4!>!G/4x/4!>!=A/4)!<)!!ff! .!fermata!=D2- | %67
[K:C] (12:8:12(D/4A/4c/4"^m.d."_e/4^f/4a/4c'/4"_m.g."_e'/4^f'/4"^m.d."!8va(![I:staff -1] =f'/4a'/4c''/4)!8va)![I:staff +1] x2 | %68
!8va(! (3(_g'/_e'/c'/)(3(g'/e'/c'/) (3(g'/e'/c'/)(3(g'/e'/c'/) (_a'/4_g'/4_e'/4c'/4)(a'/4g'/4e'/4c'/4) (a'/4g'/4e'/4c'/4)(a'/4g'/4e'/4c'/4)!8va)! | %69
 (_a/4_g/4_e/4c/4)(a/4g/4e/4c/4) (_A/4_G/4_E/4C/4)(A/4G/4E/4C/4)!<(! (10:12:10(A/4G/4E/4G/4A/4_e/4_g/4_a/4_e'/4_g'/4 _a'/)!<)! z/ || %70
[K:F#] (27:8:7z x x/ x/4 x/8[K:bass] x/8 x3/8 z3/4!<(! C/4!<)! x2 | %71
[K:F#][K:treble] (27:8:7z x x/ x/4 x/8[K:bass] x/8 x3/8 z!<(! (C/4[I:staff -1][Aa]/4[I:staff +1]!tenuto!G3/2)!<)! | %72
[K:treble] (6:4:6z/4!<(! (!>!C/4x/4!>!G/4x/4!>!=A/4!>!=D)!<)! (6:4:6z/4!<(! (!>!_E/4x/4!>!_B/4x/4!>!=B/4!>!=E)!<)! || %73
[K:C] (!//-!^D/E/) (!//-!=D/E/) (!//-!^D/E/) (!//-!=D/E/) | %74
 (!//-!^D/E/) (!//-!=D/E/) (!//-!^D/E/) (!//-!=D/E/) | %75
 (!//-!^D/E/) (!//-!=D/E/) (!//-!^D/E/) (!//-!=D/E/) | %76
 (!//-!_D/_E/[I:staff +1] !//-!C/=D/)[I:staff -1] (!//-!c/d/[I:staff +1] !//-!C/D/) | %77
[I:staff -1] (!//-!_D/_E/[I:staff +1] !//-!C/=D/)[I:staff -1] (!//-!c/d/[I:staff +1] !//-!C/D/) | %78
[I:staff -1] (C/4D/4C/4D/4C/4D/4C/4D/4)[K:bass]"^cresc." (_A,/4_G,/4_B,,/4G,/4A,/4G,/4B,,/4_G,,/4) | %79
 (_A,,/4_G,,/4_B,,,/4G,,/4) (A,,/4G,,/4B,,,/4G,,/4) (A,,/4G,,/4B,,,/4G,,/4) (A,,/4G,,/4B,,,/4G,,/4) | %80
!mp!"_molto cresc." (_A,,/4_G,,/4_B,,,/4G,,/4) (A,,/4G,,/4B,,,/4G,,/4) (A,,/4G,,/4B,,,/4G,,/4) (A,,/4G,,/4B,,,/4G,,/4) || %81
[K:F]!f!!8vb(![I:staff +1] (21:8:21(1:1:7(B,,,,/4C,,,/4B,,,/4!8vb)![I:staff -1] [C,,D,,]/4B,,/4C,/4D,/4)[I:staff +1] (1:1:7(B,,,/4C,,/4B,,/4[I:staff -1] [C,D,]/4B,/4C/4D/4)[I:staff +1] (1:1:7(B,,/4C,/4B,/4[I:staff -1][K:treble] [CD]/4B/4c/4d/4) ([Cc]/<G/-)G | %82
[K:bass]!f!!8vb(![I:staff +1] (21:8:21(1:1:7(B,,,,/4C,,,/4B,,,/4!8vb)![I:staff -1] [C,,D,,]/4B,,/4C,/4D,/4)[I:staff +1] (1:1:7(B,,,/4C,,/4B,,/4[I:staff -1] [C,D,]/4B,/4C/4D/4)[I:staff +1] (1:1:7(B,,/4C,/4B,/4[I:staff -1][K:treble] [CD]/4B/4c/4d/4) ([Cc]/4A/4G3/2) | %83
!f!!<(! (6:4:6!>!C/4x/4!>!A/4x/4!>!G/4 x/4 (6:4:6!>!B/4x/4!>!_A/4x/4!>!_D/4 x/4!<)! _c2[K:bass] | %84
!f!!8vb(![I:staff +1] (21:8:21(1:1:7(B,,,,/4C,,,/4B,,,/4!8vb)![I:staff -1] [C,,D,,]/4B,,/4C,/4D,/4)[I:staff +1] (1:1:7(B,,,/4C,,/4B,,/4[I:staff -1] [C,D,]/4B,/4C/4D/4)[I:staff +1] (1:1:7(B,,/4C,/4B,/4[I:staff -1][K:treble] [CD]/4B/4c/4d/4) ([Cc]/<G/-)G | %85
[K:bass]!f!!8vb(![I:staff +1] (21:8:21(1:1:7(B,,,,/4C,,,/4B,,,/4!8vb)![I:staff -1] [C,,D,,]/4B,,/4C,/4D,/4)[I:staff +1] (1:1:7(B,,,/4C,,/4B,,/4[I:staff -1] [C,D,]/4B,/4C/4D/4)[I:staff +1] (1:1:7(B,,/4C,/4B,/4[I:staff -1][K:treble] [CD]/4B/4c/4d/4) ([Cc]/4A/4G3/2) | %86
[M:2/8]!f!"_e cresc." x/ (6:2:6B/4[I:staff -1][bb']/4[I:staff +1]_A/4[I:staff -1][_a_a']/4[I:staff +1]_D/4[I:staff -1][_d_d']/4[I:staff +1] x/ (6:2:6c/4!8va(![I:staff -1][c'c'']/4!8va)![I:staff +1]B/4!8va(![I:staff -1][bb']/4!8va)![I:staff +1]_E/4!8va(![I:staff -1][_e_e']/4!8va)! | %87
[M:6/8][I:staff +1] z z3/4 [_DEG]/4- [DEG] z z3/4 [=DF^G]/4- [DFG] | %88
 z z3/4 [_E_GA]/4- [EGA] z z3/4 [=E=G^A]/4- [EGA] || %89
[K:C][M:2/8] z2!8va(! (7:4:7a''/8g''/8f''/8e''/8d''/8c''/8b'/8x/!8va)!x/>[K:bass]G,,/ | %90
[M:4/8]!mf! x3/8 _B,/8_A,/8_G,/8D,/8 z/8 z!p! x3/8 _B,/8_A,/8_G,/8D,/8 z/8 z | %91
!p!!>(! x3/8 _B,,/8_A,,/8_G,,/8D,,/8!>)! z/8 z z z/4!pp!!>(! .D,,/4._D,,/4.C,,/4!>)! || %92
[K:treble] x4 | x4 | x4 | (C/<G/-)G (C/4A/4G3/2-) | G z z2 | z2 z z/4!pp!!<(! C/4.A/4.G/4!<)! | %98
"_m.g."!>(! (!tenuto!_B/8_A/8._D/4) x7/2!>)! | x4 | x4 |] %101
V:3
 (3F/4G/4A/4 x/ (3F/4G/4A/4 x/ (3F/4G/4A/4 x/ (3F/4G/4A/4 x/ | %1
 (3F/4G/4A/4 x/ (3F/4G/4A/4 x/ (3F/4G/4A/4 x/ (3F/4G/4A/4 x/ | %2
 (3F/4G/4A/4 x/ (3F/4G/4A/4 x/ (3F/4G/4A/4 x/ (3F/4G/4A/4 x/ | %3
 (3F/4G/4A/4 x/ (3F/4G/4A/4 x/ (3F/4G/4A/4 x/ (3F/4G/4A/4 x/ | %4
 (3F/4G/4A/4 x/ (3F/4G/4A/4 x/ (3F/4G/4A/4 x/ (3F/4G/4A/4 x/ | %5
 (3F/4G/4A/4 x/ (3F/4G/4A/4 x/ (3F/4G/4A/4 x/ (3F/4G/4A/4 x/ | %6
 (3F/4G/4A/4 x/ (3F/4G/4A/4 x/[K:bass]"_marqué" ._A,,,[K:treble] (3F/4G/4A/4 x/ | %7
 (3F/4G/4A/4 x/ (3F/4G/4A/4 x/ (3F/4G/4A/4 x/ (3F/4G/4A/4 x/ | %8
 (3F/4G/4A/4 x/ (3F/4G/4A/4 x/[K:bass]"_marqué" ._A,,,[K:treble] (3F/4G/4A/4 x/ | %9
 (3F/4G/4A/4 x/ (3F/4G/4A/4 x/ (3F/4G/4A/4 x/ (3F/4G/4A/4 x/ | %10
 (3F/4G/4A/4 x/ (3F/4G/4A/4 x/ (3F/4G/4A/4 x/ (3F/4G/4A/4 x/ | %11
 (3F/4G/4A/4 x/ (3F/4G/4A/4 x/ (3F/4G/4A/4 x/ (3F/4G/4A/4 x/ | %12
 (3F/4G/4A/4 x/ (3F/4G/4A/4 x/ (3F/4G/4A/4 x/ (3F/4G/4A/4 x/ | %13
 (3F/4G/4A/4 x/ (3F/4G/4A/4 x/ (3F/4G/4A/4 x/ (3F/4G/4A/4 x/ | (3F/4G/4A/4 x/ (3F/4G/4A/4 x/ x2 | %15
 x4 | !-(!x4 |[K:bass]!8vb(! !-)!.B,,,,!8vb)! z z2 | x4 | %19
 (6:4:6=B,/4x/4B,/4x/4B,/4 x/4 (6:4:6C/4x/4C/4x/4C/4 x/4 (6:4:6B,/4x/4B,/4x/4B,/4 x/4 (6:4:6C/4x/4C/4x/4C/4 x/4 | %20
 (6:4:6=B,/4x/4B,/4x/4C/4 x/4 (6:4:6B,/4x/4B,/4x/4C/4 x/4 (6:4:6B,/4x/4B,/4x/4C/4 x/4 (6:4:6B,/4x/4B,/4x/4C/4 x/4 | %21
[K:treble] (6:4:6=B/4x/4B/4x/4B/4 x/4 (6:4:6c/4x/4c/4x/4c/4 x/4 (6:4:6B/4x/4B/4x/4B/4 x/4 (6:4:6c/4x/4c/4x/4c/4 x/4 | %22
 (6:4:6=B/4x/4B/4x/4c/4 x/4 (6:4:6B/4x/4B/4x/4c/4 x/4 (6:4:6B/4x/4B/4x/4c/4 x/4 (6:4:6B/4x/4B/4x/4c/4 x/4 | %23
 (6:4:6=b/4x/4b/4x/4c'/4 x/4 (6:4:6b/4x/4b/4x/4c'/4 x/4 x2 || z4 | z4 | %26
 z z3/4!f!!<(! (C/4!<)!"^très en dehors" G2-) | G4 | z2!f!!<(! (C/4A/4!<)!G3/2) | %29
[M:2/8] z/4!ff!!<(! .^C/4.^A/4.^G/4.=B/4.=A/4.D/4!<)! z/4 | %30
[M:4/8] z z3/4!f!!<(! (C/4!<)!"^très en dehors" G2) |[M:3/8][K:bass] x3 | %32
[M:4/8] z"_m.d." C, z"_m.d." C, | z"_m.d." C, z"_m.d." C, | %34
(15:8:15(x/4G,,/4_D,/4_E,/4F,/4_C/4[I:staff -1] _D/4_E/4F/4E/4D/4C/4[I:staff +1] F,/4E,/4D,/4) (15:8:15(G,,/4D,/4E,/4F,/4C/4[I:staff -1] D/4E/4F/4E/4D/4C/4[I:staff +1] F,/4E,/4D,/4G,,/4) | %35
(15:8:15(x/4G,,/4_D,/4_E,/4F,/4_C/4[I:staff -1] _D/4_E/4F/4E/4D/4C/4[I:staff +1] F,/4E,/4D,/4) (15:8:15(G,,/4D,/4E,/4F,/4C/4[I:staff -1] D/4E/4F/4E/4D/4C/4[I:staff +1] F,/4E,/4D,/4G,,/4) | %36
(16:8:16(x/4G,,/4_D,/4_E,/4F,/4_C/4[I:staff -1] _D/4_E/4F/4E/4D/4C/4[I:staff +1]F,/4[I:staff -1] C/4D/4E/4) (15:8:15(_c/4-c/4_d/4_e/4f/4e/4d/4c/4F/4E/4D/4[I:staff +1] C/4F,/4E,/4D,/4) | %37
[M:5/8](15:8:15(x/4G,,/4_D,/4_E,/4F,/4_C/4[I:staff -1] _D/4_E/4F/4E/4D/4C/4[I:staff +1] F,/4E,/4D,/4) x3 | %38
[M:4/8] z4 | z"_m.d." ._A,, z"_m.d." .A,, ||[K:Db] z x z x | z x z x | z x z x |[M:2/8] G,,2 | %44
[M:4/8] =D,,2 x2 | =D,,2 x2 || %46
[K:C][K:treble][I:staff -1] (3([B,^D^FB]/.[A,DFA]/)[I:staff +1]!tenuto![^CD]/[I:staff -1] (3([^C^E^G^c]/.[B,EGB]/)[I:staff +1]!tenuto![CD]/[I:staff -1] (3([B,DFB]/.[A,DFA]/)[I:staff +1]!tenuto![CD]/[I:staff -1] (3([B^d^fb]/.[Adfa]/)[I:staff +1]!tenuto![^c^d]/ | %47
 x2[I:staff -1] (3([B,^D^FB]/.[A,DFA]/)[I:staff +1]!tenuto![^CD]/[I:staff -1] (3([A,^CEA]/.[G,CEG]/)[I:staff +1]!tenuto![B,C]/ | %48
 z4 | z4 | z4 |[K:bass] x4 | z (3z/ z/!pp!!8vb(! D,,,/-"^(laissez vibrer)" D,,,2!8vb)! | %53
 z (3z/ z/!pp!!8vb(! D,,,/-"^(laissez vibrer)" D,,,2!8vb)! | x4 | x4 ||[K:A] !tenuto!G,,,4 | %57
 !tenuto!G,,,4 |"^les basses légères et harmonieuses" (.[B,,,B,,]2 .[D,,D,]2) | %59
 (.[C,,C,]2 .[E,,E,]2) ||[K:C]!pp!!8vb(! !tenuto![C,,,G,,,C,,]2!8vb)! x2 | %61
!pp!!8vb(! !tenuto![C,,,G,,,C,,]2!8vb)! x2 |!pp!!8vb(! !tenuto![_E,,,_B,,,_E,,]2!8vb)! x2 | %63
!pp!!8vb(! !tenuto![_E,,,_B,,,_E,,]2!8vb)! x z ||[K:F#] (.E,,,3 .B,,,) | (.E,,,3 .B,,,) | %66
 .E,,,/ z/ z x2 |[K:C] z4 | z8 | z8 ||[K:F#]!pp! (.E,,,3 .B,,,) |[K:F#] (.E,,,3 .B,,,) | %72
 .E,,, z x2 ||[K:C] .^D/ z/ .=D/ z/ .^D/ z/ .=D/ z/ | .^D/ z/ .=D/ z/ .^D/ z/ .=D/ z/ | %75
 .^D/ z/ .=D/ z/ .^D/ z/ .=D/ z/ | x4 | x4 | x2 (C,/4D,/4C,/4D,/4C,/4D,/4C,/4D,/4) | %79
 (C,,/4D,,/4C,,/4D,,/4) (C,,/4D,,/4C,,/4D,,/4) (C,,/4D,,/4C,,/4D,,/4) (C,,/4D,,/4C,,/4D,,/4) | %80
 (C,,/4D,,/4C,,/4D,,/4) (C,,/4D,,/4C,,/4D,,/4) (C,,/4D,,/4C,,/4D,,/4) (C,,/4D,,/4C,,/4D,,/4) || %81
[K:F]!8vb(! (21:8:9(1:1:7x/4 x/4 x/4!8vb)! x/4 x/4 x/4 x/4 x x z!8vb(! E,,, | %82
 (21:8:9(1:1:7x/4 x/4 x/4!8vb)! x/4 x/4 x/4 x/4 x x x2 | x4 | %84
!8vb(! (21:8:9(1:1:7x/4 x/4 x/4!8vb)! x/4 x/4 x/4 x/4 x x z!8vb(! E,,, | %85
 (21:8:9(1:1:7x/4 x/4 x/4!8vb)! x/4 x/4 x/4 x/4 x x x2 |[M:2/8] x2 | %87
[M:6/8] x x3/4 [G,B,]/4- [G,B,] x x3/4 [^G,=B,]/4- [G,B,] | %88
 x x3/4 [A,C]/4- [A,C] x x3/4 [^A,^C]/4- [A,C] ||[K:C][M:2/8]!8vb(! A,,,,2-!8vb)! x2 | %90
[M:4/8] F,/8G,/8A,/8 x/8 x/ x F,/8=G,/8=A,/8 x/8 x/ x | F,,/8=G,,/8=A,,/8 x/8 x/ x x2 || %92
"_aussi léger et  que possible"!ped!!8vb(!{/_A,,,} (!///-!_D,,,2 A,,,2)[I:staff -1]{=G,,_G,,=F,,} | %93
[I:staff +1]{_A,,,} (!///-!_D,,,2 A,,,2)!ped-up! |!ped! (!///-!_D,,,2 _A,,,2) | %95
 (!///-!_D,,,2 _A,,,2)!ped-up! |!ped! (!///-!_D,,,2 _A,,,2) | (!///-!_D,,,2 _A,,,2)!ped-up! | %98
!ped! (!///-!_D,,,2 _A,,,2) | (!///-!_D,,,2 _A,,,2)!ped-up! | ._D,,,!8vb)! z z2 |] %101
V:4
 x4 | x4 | x4 | x4 |!8va(! x/!8va)! x7/2 | x4 | x4 |!8va(! x!8va)! x3 | x4 |!8va(! x!8va)! x3 | %10
 x3!8va(! x | x7/2!8va)! x/ | x3!8va(! x | x7/2!8va)! x/ | x4 |!8va(! x4 | x!8va)! x3 | x4 | x4 | %19
 x4 | x4 | x4 | x4 | x2!8va(! x2 || x17/24!8va)! x43/16!8va(! x3/5 | %25
 x17/24!8va)! x43/16!8va(! x3/5 | x17/24!8va)! x43/16!8va(! x3/5 | x17/24!8va)! x43/16!8va(! x3/5 | %28
 x17/24!8va)! x167/64!8va(! x8/15!8va)! x3/20 |[M:2/8] x2 | %30
[M:4/8]!8va(! x17/24!8va)! x43/16!8va(! x3/5 |[M:3/8] x!8va)! x2 |[M:4/8] x161/40 | x161/40 | %34
 [_c_d]4 | [_c_d]4 | [_c_d]2 [f_c']2 |[M:5/8] [_c_d]4 x17/30!8va(! x29/60 | %38
[M:4/8] x9/16!8va)!!8va(! x9/20!8va)! x3 | x4 ||[K:Db] x4 | x3!8va(! x/4!8va)! x3/4 | %42
 x3!8va(! x/4!8va)! x3/4 |[M:2/8] x2 |[M:4/8] x2!8va(! x2/3!8va)! x4/3 | %45
 x2!8va(! x2/3!8va)! x4/3 ||[K:C] x4 |!8va(! x2/3!8va)! x10/3 | x4 | x4 | x4 | x4 | %52
 x!8va(! x!8va)! x2 | x2/3!8va(! x4/3!8va)! x2 |[I:staff +1] (.[_a_b].[^F^G]) (.[ab].[FG]) | %55
 (.[_a_b].[^F^G]) (.[ab].[FG]) || %56
[K:A][I:staff -1] (8:4:8(c'/8g/8f/8d/8[I:staff +1] c/8G/8F/8D/8) x/[I:staff -1] (8:4:8(c/8G/8F/8D/8[I:staff +1] C/8G,/8F,/8D,/8) x/[I:staff -1] (8:4:8(^B/8G/8F/8D/8[I:staff +1] ^B,/8G,/8F,/8D,/8) x/[I:staff -1] (8:4:8(^b/8g/8f/8d/8[I:staff +1] B/8G/8F/8D/8) x/ | %57
[I:staff -1] (8:4:8(c'/8g/8f/8d/8[I:staff +1] c/8G/8F/8D/8) x/[I:staff -1] (8:4:8(c/8G/8F/8D/8[I:staff +1] C/8G,/8F,/8D,/8) x/[I:staff -1] (7:4:7(d/8G/8F/8D/8[I:staff +1] G,/8F,/8D,/8) x/[I:staff -1] (7:4:7(d'/8g/8f/8d/8[I:staff +1] G/8F/8D/8) x33/64 | %58
[I:staff -1] (8:4:8(f'/8c'/8g/8f/8[I:staff +1] d/8c/8G/8F/8) x/[I:staff -1] (8:4:8(f/8c/8G/8F/8[I:staff +1] D/8C/8G,/8F,/8) x/[I:staff -1] (8:4:8(e/8=c/8G/8E/8[I:staff +1] D/8=C/8G,/8E,/8) x/[I:staff -1] (8:4:8(e'/8=c'/8g/8e/8[I:staff +1] d/8=c/8G/8E/8) x/ | %59
[I:staff -1] (8:4:8(g'/8^d'/8^a/8g/8[I:staff +1] e/8^d/8^A/8G/8) x/[I:staff -1] (8:4:8(g/8^d/8^A/8G/8[I:staff +1] E/8^D/8^A,/8G,/8) x/[I:staff -1] (8:4:8(f/8=d/8A/8F/8[I:staff +1] E/8=D/8A,/8F,/8) x/[I:staff -1] (8:4:8(f'/8=d'/8a/8f/8[I:staff +1] e/8d/8A/8F/8) x/ || %60
[K:C]!8va(! x2!8va)! x2 |!8va(! x2!8va)! x2 |!8va(! x2!8va)! x2 | %63
!8va(! x2!8va)! x3/2!8va(! x33/64 ||[K:F#] x3/16!8va)! x245/64 |!8va(! x3/16!8va)! x245/64 | x4 | %67
[K:C] x3/2!8va(! x5/2 | x8!8va)! | x6!8va(! x53/32 ||[K:F#] x3/16!8va)! x245/64 | %71
[K:F#]!8va(! x3/16!8va)! x245/64 | x4 ||[K:C] x4 | x5/4!8va(! x7/4!8va)! x | x4 | x4 | x4 | x4 | %79
 x4 | x4 ||[K:F] x241/60 | x241/60 | %83
 x2 z/!p! (6:2:6x/4 (B/4x/4_A/4x/4_D/4) (6:2:6x/4[I:staff -1][K:bass] (B,/4x/4_A,/4x/4_D,/4) (6:2:6x/4 (B,,/4x/4_A,,/4x/4_D,,/4) | %84
[K:treble] x241/60 | x241/60 |[M:2/8] x19/12!8va(! x5/12 |[M:6/8] x2!8va)! x!8va(! x2!8va)! x | %88
!8va(! x2!8va)! x!8va(! x2!8va)! x ||[K:C][M:2/8] x2!8va(! !-(!x7/4!8va)![K:bass]!-)!x/4 | %90
[M:4/8] x4 | x4 ||[K:treble] x4 | x4 | x4 | x4 | x4 | x4 | x2!8va(! x2 | x5/2!8va)! x3/2 | x4 |] %101
V:5
 x4 | x4 | x4 | x4 | x4 | x4 | x2[K:bass] x[K:treble] x | x4 | x2[K:bass] x[K:treble] x | x4 | x4 | %11
 x4 | x4 | x4 | x4 | x4 | x4 |[K:bass]!8vb(! x!8vb)! x3 | x4 | x4 | x4 |[K:treble] x4 | x4 | x4 || %24
 x4 | x4 | x4 | x4 | x4 |[M:2/8] x2 |[M:4/8] x4 |[M:3/8][K:bass] x3 |[M:4/8] x161/40 | x161/40 | %34
 !>!G,,,4 | !>!G,,,4 | G,,,4 |[M:5/8] !>!G,,,4 x |[M:4/8] x81/20 | x4 || %40
[K:Db] x .A,,/ x/ x .A,,/ x/ | x .A,,/ x/ x .A,,/ x/ | x .A,,/ x/ x .A,,/ x/ |[M:2/8] x2 | %44
[M:4/8] x4 | x4 ||[K:C][K:treble] x4 | x4 | x4 | x4 | x4 |[K:bass] x4 | x5/3!8vb(! x7/3!8vb)! | %53
 x5/3!8vb(! x7/3!8vb)! | x4 | x4 ||[K:A] x4 | x4 | x4 | x4 ||[K:C]!8vb(! x2!8vb)! x2 | %61
!8vb(! x2!8vb)! x2 |!8vb(! x2!8vb)! x2 |!8vb(! x2!8vb)! x2 ||[K:F#] x241/60 | x241/60 | x4 | %67
[K:C] x4 | x8 | x8 ||[K:F#] x241/60 |[K:F#] x241/60 | x4 ||[K:C] x4 | x4 | x4 | x4 | x4 | x4 | x4 | %80
 x4 ||[K:F]!8vb(! x9/32!8vb)! x163/60!8vb(! x | x3/10!8vb)! x223/60 | x4 | %84
!8vb(! x9/32!8vb)! x163/60!8vb(! x | x3/10!8vb)! x223/60 |[M:2/8] x2 | %87
[M:6/8] [_E,,,_E,,]3 [=E,,,=E,,]3 | [F,,,F,,]3 [^F,,,^F,,]3 ||[K:C][M:2/8]!8vb(! x2!8vb)! x2 | %90
[M:4/8] x4 | x4 ||!8vb(! x4 | x4 | x4 | x4 | x4 | x4 | x4 | x4 | x!8vb)! x3 |] %101
V:6
 x4 | x4 | x4 | x4 | x4 | x4 | x4 | x4 | x4 | x4 | x4 | x4 | x4 | x4 | x4 |!8va(! x7/2!8va)! x/ | %16
 x4 | x4 | x4 | x4 | x4 | x4 | x4 | x2!8va(! x2!8va)! || x4 | x4 | x4 | x4 | x4 |[M:2/8] x2 | %30
[M:4/8] x4 |[M:3/8] x3 |[M:4/8] x161/40 | x161/40 | x4 | x4 | x4 |[M:5/8] x5 | %38
[M:4/8] x18/5[K:bass] x9/20 | x4 ||[K:Db] x4 | x4 | x4 |[M:2/8] x3/4[K:treble] x5/4 |[M:4/8] x4 | %45
 x4 ||[K:C] x4 | x4 | x4 | x4 | x4 | x4 | x!8va(! x!8va)! x2 | x2/3!8va(! x4/3!8va)! x2 | x4 | %55
 x4 ||[K:A] x5/4[K:bass] x2[K:treble] x3/4 | x5/4[K:bass] x2[K:treble] x3/4 | %58
 x5/4[K:bass] x2[K:treble] x3/4 | x5/4[K:bass] x2[K:treble] x3/4 ||[K:C] x[K:bass] x3 | x4 | %62
 x2[K:treble] x2 | x[K:bass] x[K:treble] x2 ||[K:F#] x13/15[K:bass] x63/20 | %65
[K:treble] x13/15[K:bass] x63/20 |[K:treble] x4 |[K:C] x3/2!8va(! x/!8va)! x2 |!8va(! x8!8va)! | %69
 x8 ||[K:F#] x13/15[K:bass] x63/20 |[K:F#][K:treble] x13/15[K:bass] x63/20 |[K:treble] x4 || %73
[K:C] x4 | x4 | x4 | x4 | x4 | x2[K:bass] x2 | x4 | x4 || %81
[K:F]!8vb(! x9/32!8vb)! x43/32[K:treble] x153/64 | %82
[K:bass]!8vb(! x9/32!8vb)! x43/32[K:treble] x153/64 | %83
 x2 z/[K:bass] (6:2:6(B,/4x/4_A,/4x/4_D,/4) x/4 (6:2:6(B,,/4x/4_A,,/4x/4_D,,/4) x/4 (6:2:6(B,,,/4x/4_A,,,/4x/4_D,,,/4) x/4 | %84
!8vb(! x9/32!8vb)! x43/32[K:treble] x153/64 |[K:bass]!8vb(! x9/32!8vb)! x43/32[K:treble] x153/64 | %86
[M:2/8] x19/12 |[M:6/8] x6 | x6 ||[K:C][M:2/8] x2 !-(!x7/4[K:bass]!-)!x/4 |[M:4/8] x4 | x4 || %92
[K:treble] x4 | x4 | x4 | x4 | x4 | x4 | !tenuto![_A,_DF] x3 | x4 | x4 |] %101

